X:1
T: Four Green Fields
C: Words & music by Tommy Makem
R: waltz, air
M: 6/8
L: 1/8
% Contributed 19991203142508 by John Chambers jc@trillian.mit.edu
K: D
| "D"d3 "A7"c2B | "D"A3- AFA | "G"B3 "A7"G3 | "D"FA2- A3 \
| "D"d3 "A7"c2B | "D"A3- A2A | "E7"B2B Bcd | "A7"c3- cBA |
| "D"f3 "A7"e3 | "Bm"d3- d2e | "D"f2d "G"g2f | "A7"fe2- e2A \
| "D"f3 "A7"e3 | "Bm"d3- d2c | "G"B2B Bcd | "A7"[c3-e3-] [ce]BA |
| "D"a3 "G7"g3 | "D"f3- fde | f2d "G"g2f | "A7"fe2- e2A \
| "G"B3 d3 | "D"A3- A2g | fed "A7"e2c | "D"d3 z3 |]
